X: 11283
T: Dying Year, The
R: strathspey
M: 4/4
K: Emajor
B2|E3 G B2 G2|e3 B G2 E2|A,3 c c2 ^A,2|d3 B c2 d2|e3 B G2 E2|
c3 A F2 D2|B,3 A G3 F|GE- E2 E2:|a2|g3 e b3 g|f2 d2 B2 =d2|
c3 A e3 c|B2 G2 E2 FG|A3 B c2 A2|G3 A B3 G|F3 G F3 E|
D2 B,2 C2 D2|E3 e g2 b2|f3 d B2 =c2|^C3 c d2 e2|B3 E E3 z|
c3 d e2 c2|B3 G E2 G2|F3 D B,3 A|GE- E2 E2||

